X: 25329
T: Manorhamilton
R: jig
M: 6/8
K: Dmajor
|:A|"D"DFA dcd|fdd edd|"G"BdB "D"AFA|"Em"BAF "A"EFE|
"D"DFA dcd|"Bm"fdd edd|"G"BdB "D"AFD|"A"EDC "D"D2:|
|:d/e/|"Bm"fdd edd|"G"BdB "D"AFD|"G"GAB "D"Add|
[1 "Em" fdd "A"e2d/e/|"Bm"fdd edd|"G"BdB "D"AFD|"G"GAB "D"AFD|"A"EDC D2:|
[2 "D"fdd "A"e2A|"D"DFA dcd|"Bm"fdd edd|"G"BdB "D"AFD|"A"EDC "D"D2||

